X:1
T:Title
L:1/8
Q:1/4=110
M:4/4
K:D
V:1
A2 | f2- ff (3a-aa -a2- | a4 f2 a2 b>c'ba |f4 z4| 
 z3 f/e/ f2 a2 | e2- ed e4- | e2 z2 (3A-Ad -de (3f-fd -dA |B B2 B/A/ B4 | 
 B3 c d2 e2 | f f2 f a a3- | a2 z d/e/ fa d'c' b>c' (3b/c'/b/a |f8 | z3 f/e/ f2 a2 | 
 e>e- ee/d/ e4- | e2 z2 A2 de | f2 dA (3B-Bd- df e3 d |d6 
